src/game/GamePart/Arena/Field/PlayersLayer/img/opp-2.svg

<svg width="40" height="40" viewBox="0 0 40 40" fill="none" xmlns="http://www.w3.org/2000/svg">
<g clip-path="url(#clip0)">
<path d="M32.2358 27.5551C32.2358 20.7499 26.7193 15.2334 19.9141 15.2334C13.1093 15.2334 7.59277 20.7499 7.59277 27.5551C7.59277 34.3603 13.1093 35.7696 19.9141 35.7696C26.7193 35.7696 32.2358 34.3603 32.2358 27.5551Z" fill="#FF927D"/>
<path d="M32.2357 27.5552H32.8581C32.8574 20.406 27.0631 14.6114 19.914 14.6111C12.7652 14.6114 6.97057 20.406 6.97022 27.5552C6.9695 29.3388 7.33378 30.8194 8.02103 32.0187C8.53486 32.9175 9.22745 33.6503 10.0465 34.23C11.2767 35.1007 12.7819 35.6345 14.4545 35.9578C16.1281 36.28 17.9758 36.3919 19.914 36.3919C23.3588 36.3876 26.5222 36.0493 28.9223 34.762C30.1194 34.1175 31.1218 33.2188 31.8073 32.0187C32.4945 30.8194 32.8584 29.3388 32.8581 27.5552H31.6132C31.6125 29.174 31.2874 30.4213 30.7273 31.4002C30.306 32.1352 29.7498 32.7267 29.0622 33.2145C28.0324 33.9452 26.6974 34.4352 25.1381 34.7353C23.5799 35.0362 21.8037 35.1477 19.914 35.1473C16.5536 35.1516 13.556 34.7852 11.4968 33.6664C10.4645 33.1077 9.66259 32.3788 9.10068 31.4002C8.54092 30.421 8.21545 29.1736 8.21474 27.5548C8.2151 24.3223 9.52336 21.4013 11.6414 19.2822C13.7604 17.1642 16.6814 15.856 19.914 15.8556C23.1465 15.856 26.0675 17.1642 28.1866 19.2822C30.305 21.4013 31.6129 24.3223 31.6132 27.5548H32.2357V27.5552Z" fill="#54596E"/>
<path d="M19.2912 23.9455C19.2912 26.0079 17.6198 27.6794 15.5577 27.6794C13.4956 27.6794 11.8237 26.0079 11.8237 23.9455C11.8237 21.8834 13.4956 20.2119 15.5577 20.2119C17.6198 20.2119 19.2912 21.8834 19.2912 23.9455Z" fill="white"/>
<path d="M19.2911 23.9454H19.9135C19.9132 21.5396 17.9633 19.5897 15.5575 19.5894C13.1515 19.5897 11.2019 21.5396 11.2012 23.9454C11.2019 26.3514 13.1515 28.3014 15.5575 28.3017C17.9633 28.3014 19.9132 26.3514 19.9135 23.9454H18.669C18.6687 24.8067 18.3218 25.5805 17.7574 26.1456C17.1927 26.7097 16.4186 27.0569 15.5575 27.0572C14.6962 27.0569 13.9224 26.7097 13.3573 26.1456C12.7932 25.5805 12.4461 24.8067 12.4461 23.9454C12.4461 23.0843 12.7932 22.3106 13.3573 21.7455C13.9224 21.1814 14.6962 20.8342 15.5575 20.8339C16.4186 20.8342 17.1927 21.1814 17.7574 21.7455C18.3218 22.3106 18.6687 23.0843 18.669 23.9454H19.2911Z" fill="#54596E"/>
<path d="M28.0041 23.9455C28.0041 26.0079 26.3326 27.6794 24.2702 27.6794C22.2081 27.6794 20.5366 26.0079 20.5366 23.9455C20.5366 21.8834 22.2081 20.2119 24.2702 20.2119C26.3326 20.2119 28.0041 21.8834 28.0041 23.9455Z" fill="white"/>
<path d="M28.0035 23.9454H28.626C28.6252 21.5396 26.6757 19.5897 24.2696 19.5894C21.8639 19.5897 19.9139 21.5396 19.9136 23.9454C19.9139 26.3514 21.8639 28.3014 24.2696 28.3017C26.6757 28.3014 28.6252 26.3514 28.626 23.9454H27.3814C27.3811 24.8067 27.0339 25.5805 26.4698 26.1456C25.9047 26.7097 25.131 27.0569 24.2696 27.0572C23.4086 27.0569 22.6348 26.7097 22.0697 26.1456C21.5053 25.5805 21.1585 24.8067 21.1581 23.9454C21.1585 23.0843 21.5053 22.3106 22.0697 21.7455C22.6348 21.1814 23.4086 20.8342 24.2696 20.8339C25.131 20.8342 25.9047 21.1814 26.4698 21.7455C27.0339 22.3106 27.3811 23.0843 27.3814 23.9454H28.0035Z" fill="#54596E"/>
<path d="M1.08074 28.1005L1.08145 28.0998C1.11777 28.0607 1.65546 27.502 2.5966 26.9621C3.53952 26.4216 4.87663 25.9003 6.54383 25.9003C6.83653 25.9003 7.13956 25.9163 7.45256 25.9512C7.79405 25.9897 8.10206 25.744 8.14016 25.4025C8.17862 25.061 7.93256 24.753 7.59108 24.7145C7.23107 24.6743 6.88175 24.6558 6.54383 24.6558C4.5501 24.6558 2.9591 25.301 1.87339 25.943C0.786256 26.5861 0.193728 27.2267 0.164172 27.2584C-0.0683524 27.5112 -0.0519724 27.9051 0.201205 28.1376C0.454383 28.3701 0.848215 28.3537 1.08074 28.1005Z" fill="#54596E"/>
<path d="M1.58067 32.5305L1.37948 32.423L1.57996 32.5319L1.58067 32.5305L1.37948 32.423L1.57996 32.5319C1.58495 32.522 2.02044 31.7282 2.94021 30.8825C3.86212 30.0354 5.25229 29.137 7.21361 28.8571C7.55403 28.8083 7.79047 28.4936 7.74205 28.1531C7.69326 27.8127 7.37848 27.5763 7.03806 27.6247C4.74522 27.9509 3.10152 29.0266 2.04715 30.0133C0.990281 31.0018 0.506003 31.9031 0.483213 31.944C0.321194 32.2471 0.435854 32.6242 0.738884 32.7862C1.04191 32.9478 1.41901 32.8335 1.58067 32.5305Z" fill="#54596E"/>
<path d="M3.63397 36.2817L3.40322 36.2383L3.63361 36.2835L3.63397 36.2817L3.40322 36.2383L3.63361 36.2835C3.63503 36.2721 3.81343 35.3847 4.4373 34.3026C5.06366 33.2179 6.12088 31.9446 7.90843 31.09C8.21859 30.9418 8.34963 30.5704 8.20149 30.2603C8.05336 29.9501 7.68196 29.8191 7.37181 29.9672C5.28194 30.965 4.03563 32.4833 3.32524 33.7407C2.61271 35.0002 2.42007 36.005 2.41081 36.051C2.34707 36.3885 2.56927 36.7144 2.90684 36.7777C3.24476 36.8415 3.57023 36.6196 3.63397 36.2817Z" fill="#54596E"/>
<path d="M39.8359 27.258C39.8064 27.2267 39.2138 26.5861 38.1267 25.9427C37.041 25.301 35.45 24.6554 33.4563 24.6558C33.1183 24.6558 32.769 24.6739 32.409 24.7145C32.0675 24.753 31.8215 25.0606 31.8599 25.4025C31.898 25.744 32.206 25.9897 32.5475 25.9512C32.8609 25.9163 33.1636 25.9003 33.4563 25.9003C35.1772 25.9003 36.5471 26.4554 37.4936 27.0145C37.9657 27.2933 38.33 27.5725 38.5718 27.7783C38.6929 27.8812 38.7837 27.9659 38.8421 28.0226L38.9055 28.0856L38.9186 28.0995L38.9193 28.1002C39.1522 28.3534 39.5457 28.3701 39.7989 28.1372C40.0521 27.9051 40.0684 27.5112 39.8359 27.258Z" fill="#54596E"/>
<path d="M39.5169 31.944C39.4942 31.9027 39.0095 31.0015 37.9527 30.0133C36.8983 29.0263 35.2549 27.9509 32.9617 27.6247C32.6217 27.5763 32.3065 27.8127 32.2577 28.1531C32.2093 28.4932 32.4461 28.8083 32.7862 28.8571C34.7785 29.1416 36.1818 30.0642 37.103 30.9228C37.5624 31.3515 37.8971 31.7631 38.114 32.0633C38.2226 32.2132 38.3016 32.3354 38.3522 32.4173L38.4067 32.5084L38.4181 32.5287L38.4198 32.5319L38.6203 32.4226L38.4191 32.5302L38.4198 32.5319L38.6203 32.4226L38.4191 32.5302C38.5811 32.8332 38.9579 32.9478 39.2609 32.7862C39.5639 32.6242 39.6786 32.2471 39.5169 31.944Z" fill="#54596E"/>
<path d="M37.589 36.0508C37.5798 36.0045 37.3875 34.9996 36.6753 33.7401C35.9646 32.4831 34.7186 30.9644 32.6284 29.9667C32.3182 29.8185 31.9468 29.9499 31.7987 30.2601C31.6506 30.5702 31.782 30.9416 32.0918 31.0898C33.9074 31.9579 34.9704 33.2583 35.5921 34.3537C35.9015 34.9002 36.0981 35.3934 36.2152 35.7445C36.2736 35.9201 36.3125 36.06 36.3363 36.1533L36.3609 36.2569L36.3655 36.2794L36.3662 36.2829L36.5941 36.2384L36.3659 36.2815L36.3662 36.2829L36.5941 36.2384L36.3659 36.2815C36.4296 36.6191 36.7551 36.8413 37.093 36.7775C37.4306 36.7138 37.6528 36.3883 37.589 36.0508Z" fill="#54596E"/>
<path d="M16.8024 23.9455C16.8024 24.6331 16.2451 25.1903 15.5579 25.1903C14.8703 25.1903 14.313 24.6331 14.313 23.9455C14.313 23.2582 14.8703 22.7009 15.5579 22.7009C16.2451 22.7009 16.8024 23.2582 16.8024 23.9455Z" fill="#55A6FF"/>
<path d="M25.5148 23.9455C25.5148 24.6331 24.9575 25.1903 24.2699 25.1903C23.5827 25.1903 23.0254 24.6331 23.0254 23.9455C23.0254 23.2582 23.5827 22.7009 24.2699 22.7009C24.9575 22.7009 25.5148 23.2582 25.5148 23.9455Z" fill="#55A6FF"/>
<path d="M7.65161 11.876C7.65161 11.876 9.59591 7.00917 10.3808 5.04359C8.24944 4.13727 5.31292 5.84263 3.72155 8.96619C2.08294 12.1817 2.49237 15.6736 4.63629 16.7658C6.77987 17.8583 9.84571 16.1369 11.484 12.9217C12.0262 11.8578 12.3391 10.7656 12.4439 9.73854L7.65161 11.876Z" fill="#FF927D"/>
<path d="M7.65173 11.8761L8.22973 12.1071C8.22973 12.1071 10.1737 7.23999 10.9589 5.2744C11.0843 4.96045 10.9358 4.6031 10.6247 4.47072C10.09 4.24307 9.5152 4.15375 8.93951 4.18427C7.83546 4.24392 6.72964 4.72548 5.73173 5.50377C4.73319 6.28387 3.83762 7.36844 3.16701 8.68369C2.37951 10.2315 2.03042 11.844 2.10515 13.2903C2.1509 14.1633 2.3523 14.9786 2.72343 15.678C3.09343 16.3764 3.64277 16.9588 4.35346 17.3202C4.94847 17.6242 5.60418 17.746 6.25949 17.7106C7.36496 17.6509 8.47177 17.1678 9.47139 16.388C10.4705 15.6061 11.3675 14.52 12.0384 13.204C12.6145 12.0731 12.95 10.9088 13.0632 9.80174C13.0858 9.58054 12.9889 9.36455 12.8091 9.23419C12.629 9.10385 12.3935 9.07947 12.1907 9.16997L7.39802 11.3078L7.65173 11.8761L8.22973 12.1071L7.65173 11.8761L7.90509 12.4444L12.6978 10.3069L12.4441 9.73862L11.8249 9.67515C11.7284 10.6223 11.4374 11.6427 10.9294 12.6389C10.3374 13.8013 9.5474 14.7495 8.70472 15.4077C7.86213 16.0676 6.97217 16.4291 6.19438 16.4681C5.73027 16.4914 5.30659 16.4084 4.91866 16.2116C4.45733 15.9751 4.09366 15.6015 3.82244 15.0937C3.55271 14.5873 3.38546 13.9474 3.34761 13.2252C3.28385 12.029 3.57877 10.6144 4.27598 9.24887C4.86728 8.08718 5.65635 7.14083 6.49735 6.48452C7.33861 5.82641 8.22756 5.46603 9.00428 5.42711C9.41182 5.40611 9.78913 5.46835 10.1374 5.61626L10.3809 5.04367L9.80292 4.81295C9.41012 5.79558 8.72803 7.50402 8.14393 8.96628C7.55947 10.4286 7.0734 11.6454 7.0734 11.6454C6.97947 11.8806 7.03741 12.1493 7.22026 12.3248C7.40313 12.5006 7.67339 12.5478 7.90511 12.4447L7.65173 11.8761Z" fill="#54596E"/>
<path d="M4.5047 16.7242C4.48478 16.7455 4.24262 16.9964 3.99616 17.3966C3.75505 17.7968 3.48677 18.3521 3.5161 19.0274C3.53279 19.3799 3.65009 19.7606 3.89375 20.0962C4.26123 20.6036 4.86522 20.9906 5.74078 21.266C6.62061 21.5411 7.79353 21.7139 9.38773 21.7538C9.73119 21.7622 10.0168 21.4904 10.0252 21.147C10.0336 20.8035 9.76192 20.5182 9.41846 20.5098C7.39491 20.4626 6.16521 20.1726 5.51348 19.8409C5.1857 19.6759 5.00513 19.5099 4.90399 19.3693C4.80383 19.2273 4.76858 19.1058 4.75927 18.9622C4.73922 18.6951 4.87884 18.3316 5.05687 18.0477C5.14395 17.9062 5.23461 17.7856 5.30128 17.7036L5.37986 17.6111L5.39873 17.5901L5.40212 17.5867L5.24493 17.4381L5.40077 17.5882L5.40212 17.5867L5.24493 17.4381L5.40077 17.5882C5.63919 17.3408 5.63174 16.9468 5.38461 16.7083C5.13712 16.4696 4.74313 16.477 4.5047 16.7242Z" fill="#54596E"/>
<path d="M32.2286 12.2192C32.2286 12.2192 30.2847 7.35239 29.4995 5.3868C31.6311 4.48049 34.5677 6.18585 36.1587 9.30939C37.7977 12.525 37.3879 16.0168 35.2439 17.109C33.1004 18.2015 30.0345 16.4801 28.3963 13.2649C27.8544 12.201 27.5412 11.1088 27.4363 10.0817L32.2286 12.2192Z" fill="#FF927D"/>
<path d="M32.2283 12.2193L32.8062 11.9886C32.8062 11.9886 30.8623 7.12183 30.0767 5.15586L29.4987 5.38694L29.7426 5.95955C30.0909 5.81163 30.4682 5.74975 30.8754 5.77038C31.6528 5.80934 32.5414 6.1697 33.3826 6.82781C34.2236 7.48412 35.0127 8.43046 35.604 9.59215C36.3009 10.9576 36.5958 12.3723 36.532 13.5685C36.4945 14.2907 36.3269 14.9305 36.0572 15.437C35.786 15.9448 35.4223 16.3183 34.961 16.5548L34.9613 16.5548C34.5734 16.7517 34.1494 16.8346 33.6853 16.8114C32.9078 16.7724 32.0175 16.4105 31.1749 15.7509C30.3326 15.0928 29.5422 14.1446 28.9506 12.9825C28.4426 11.986 28.1516 10.9656 28.0547 10.0184L27.4356 10.0819L27.1822 10.6502L31.9749 12.7876C32.2062 12.8911 32.4769 12.8439 32.6594 12.668C32.8422 12.4922 32.9002 12.2239 32.8062 11.9886L32.2283 12.2193L32.482 11.6511L27.6893 9.51361C27.4862 9.42309 27.251 9.44749 27.0708 9.57783C26.8907 9.70817 26.7942 9.92383 26.8168 10.145C26.9299 11.2524 27.2654 12.4167 27.8416 13.5477C28.5129 14.8637 29.4091 15.9501 30.4086 16.7317C31.4078 17.5114 32.515 17.9945 33.6201 18.0546C34.2758 18.0896 34.9315 17.9678 35.5261 17.6642L35.5265 17.6642C36.2375 17.3028 36.7869 16.72 37.1565 16.0216C37.5277 15.3226 37.7291 14.507 37.7752 13.6343C37.8496 12.1877 37.5008 10.5752 36.713 9.02733C36.0424 7.71208 35.1468 6.62751 34.1486 5.84743C33.1503 5.06913 32.0448 4.58793 30.9405 4.52792C30.3648 4.49739 29.7899 4.58672 29.2553 4.81436C28.9442 4.94675 28.7956 5.3041 28.9207 5.61802C29.3135 6.60065 29.996 8.30911 30.5801 9.77137C31.1645 11.2337 31.6503 12.4504 31.6503 12.4504L32.2283 12.2193L32.482 11.6511L32.2283 12.2193Z" fill="#54596E"/>
<path d="M35.1011 17.9642L35.2566 17.814L35.0998 17.9627L35.1011 17.9642L35.2566 17.814L35.0998 17.9627C35.1049 17.9676 35.2939 18.1711 35.4607 18.4505C35.6322 18.7301 35.7612 19.0796 35.7423 19.3382C35.7329 19.4817 35.6977 19.6033 35.5975 19.7453C35.4493 19.9543 35.1072 20.2288 34.3876 20.4546C33.6723 20.6799 32.6008 20.8487 31.0831 20.8854C30.7396 20.8942 30.4679 21.1794 30.4763 21.5229C30.4847 21.8667 30.77 22.1384 31.1138 22.1297C33.239 22.0745 34.6167 21.792 35.547 21.3287C36.0106 21.0962 36.3651 20.8092 36.6078 20.4721C36.8514 20.1365 36.9687 19.7558 36.9854 19.4033C37.0148 18.7281 36.7468 18.1727 36.5054 17.7725C36.2592 17.3727 36.0171 17.1215 35.9972 17.1001C35.7584 16.8526 35.3644 16.8455 35.1169 17.0839C34.8694 17.3227 34.8623 17.7167 35.1011 17.9642Z" fill="#54596E"/>
<path d="M12.9222 29.8999C14.5331 32.1169 17.1525 33.5605 20.1041 33.5601C23.0407 33.5605 25.648 32.1319 27.2611 29.9341C27.4644 29.6571 27.4046 29.2675 27.1275 29.0642C26.8505 28.8609 26.4609 28.9203 26.2576 29.1977C24.8671 31.0896 22.6312 32.3156 20.1041 32.3156C17.5641 32.3156 15.3176 31.0764 13.9292 29.1682C13.7269 28.8901 13.3377 28.8285 13.0596 29.0307C12.7815 29.2326 12.7203 29.6218 12.9222 29.8999Z" fill="#54596E"/>
</g>
<defs>
<clipPath id="clip0">
<rect width="40" height="40" fill="white"/>
</clipPath>
</defs>
</svg>

<svg width="40" height="40" fill="none" xmlns="http://www.w3.org/2000/svg"><g clip-path="url(#clip0)"><path d="M32.236 27.555c0-6.805-5.517-12.322-12.322-12.322-6.805 0-12.321 5.517-12.321 12.322 0 6.805 5.516 8.215 12.321 8.215s12.322-1.41 12.322-8.215z" fill="#FF927D"/><path d="M32.236 27.555h.622c0-7.149-5.795-12.944-12.944-12.944-7.149 0-12.943 5.795-12.944 12.944 0 1.784.364 3.264 1.051 4.464a6.885 6.885 0 0 0 2.025 2.211c1.23.87 2.736 1.405 4.409 1.728 1.673.322 3.52.434 5.459.434 3.445-.004 6.608-.343 9.008-1.63 1.197-.645 2.2-1.543 2.885-2.743.688-1.2 1.051-2.68 1.051-4.464h-1.245c0 1.619-.326 2.866-.886 3.845a5.631 5.631 0 0 1-1.665 1.815c-1.03.73-2.365 1.22-3.924 1.52-1.558.301-3.334.413-5.224.412-3.36.005-6.358-.362-8.417-1.48-1.033-.56-1.834-1.288-2.396-2.267-.56-.979-.886-2.226-.886-3.845a11.66 11.66 0 0 1 3.426-8.273 11.66 11.66 0 0 1 8.273-3.426 11.66 11.66 0 0 1 8.273 3.426 11.659 11.659 0 0 1 3.426 8.273h.623z" fill="#54596E"/><path d="M19.291 23.945a3.733 3.733 0 1 1-7.467.001 3.733 3.733 0 0 1 7.467 0z" fill="#fff"/><path d="M19.291 23.945h.622a4.356 4.356 0 1 0-8.712.001 4.356 4.356 0 0 0 8.712 0H18.67c0 .86-.347 1.634-.912 2.2a3.098 3.098 0 0 1-2.2.911 3.099 3.099 0 0 1-2.2-.911 3.097 3.097 0 0 1-.91-2.2c0-.862.346-1.635.91-2.2a3.099 3.099 0 0 1 2.2-.912c.862 0 1.636.347 2.2.912.565.565.912 1.338.912 2.2h.622z" fill="#54596E"/><path d="M28.004 23.945a3.734 3.734 0 1 1-7.467.001 3.734 3.734 0 0 1 7.467 0z" fill="#fff"/><path d="M28.003 23.945h.623a4.357 4.357 0 1 0-8.714.002 4.357 4.357 0 0 0 8.714-.002h-1.245c0 .862-.347 1.636-.911 2.2a3.099 3.099 0 0 1-2.2.912 3.099 3.099 0 0 1-2.2-.911 3.098 3.098 0 0 1-.912-2.2c0-.862.347-1.635.912-2.2a3.099 3.099 0 0 1 2.2-.912c.861 0 1.635.347 2.2.912.564.565.911 1.338.911 2.2h.622zM1.08 28.1h.001c.037-.04.574-.598 1.516-1.138a7.897 7.897 0 0 1 4.856-1.01.622.622 0 1 0 .138-1.238 9.152 9.152 0 0 0-5.718 1.229c-1.087.643-1.68 1.284-1.709 1.315a.622.622 0 1 0 .917.843zM1.58 32.53l-.2-.107.2.109v-.001l-.2-.108.2.109c.005-.01.44-.804 1.36-1.65a7.873 7.873 0 0 1 4.274-2.025.622.622 0 0 0-.176-1.232 9.13 9.13 0 0 0-4.99 2.388C.99 31.002.505 31.903.482 31.944a.622.622 0 0 0 1.098.587zM3.634 36.282l-.23-.044.23.045v-.001l-.23-.044.23.045c.001-.01.18-.898.803-1.98a7.876 7.876 0 0 1 3.471-3.213.622.622 0 1 0-.536-1.123 9.128 9.128 0 0 0-4.047 3.774c-.712 1.26-.905 2.264-.914 2.31a.622.622 0 1 0 1.223.23zM39.836 27.258c-.03-.031-.622-.672-1.71-1.315a9.15 9.15 0 0 0-5.717-1.229.622.622 0 0 0 .139 1.237 7.902 7.902 0 0 1 4.946 1.063c.472.28.836.559 1.078.764.12.103.212.188.27.245l.064.063.013.014a.622.622 0 1 0 .917-.842zM39.517 31.944c-.023-.041-.508-.942-1.564-1.93a9.127 9.127 0 0 0-4.991-2.39.623.623 0 0 0-.176 1.233 7.878 7.878 0 0 1 4.317 2.066c.46.429.794.84 1.011 1.14.109.15.188.272.238.354l.055.091.011.02.002.004.2-.11-.2.108v.002l.2-.11-.2.108a.623.623 0 0 0 1.097-.586zM37.589 36.05c-.01-.045-.201-1.05-.914-2.31a9.13 9.13 0 0 0-4.047-3.773.622.622 0 1 0-.536 1.123 7.877 7.877 0 0 1 3.5 3.264c.31.546.506 1.04.623 1.39.059.176.097.316.121.41l.025.103.005.022v.004l.228-.045-.228.044.228-.044-.228.044a.622.622 0 0 0 1.223-.231z" fill="#54596E"/><path d="M16.802 23.945a1.245 1.245 0 1 1-2.489 0 1.245 1.245 0 0 1 2.49 0zM25.515 23.945a1.245 1.245 0 1 1-2.49 0 1.245 1.245 0 0 1 2.49 0z" fill="#55A6FF"/><path d="M7.652 11.876l2.729-6.832c-2.132-.907-5.068.799-6.66 3.922-1.638 3.216-1.229 6.708.915 7.8 2.144 1.092 5.21-.63 6.848-3.844a9.093 9.093 0 0 0 .96-3.183l-4.792 2.137z" fill="#FF927D"/><path d="M7.652 11.876l.578.231 2.729-6.833a.623.623 0 0 0-.334-.803 3.775 3.775 0 0 0-1.685-.287c-1.105.06-2.21.541-3.208 1.32-.999.78-1.894 1.864-2.565 3.18-.787 1.548-1.137 3.16-1.062 4.606.046.873.247 1.689.618 2.388.37.698.92 1.28 1.63 1.642.595.304 1.251.426 1.906.39 1.106-.06 2.213-.542 3.212-1.322 1-.782 1.896-1.868 2.567-3.184a9.716 9.716 0 0 0 1.025-3.402.623.623 0 0 0-.872-.632l-4.793 2.138.254.568.578.231-.578-.23.253.567 4.793-2.137-.254-.568-.62-.064a8.472 8.472 0 0 1-.895 2.964c-.592 1.162-1.382 2.11-2.224 2.769-.843.66-1.733 1.021-2.51 1.06a2.488 2.488 0 0 1-1.276-.256c-.462-.237-.825-.61-1.097-1.118-.27-.507-.437-1.147-.474-1.869-.064-1.196.23-2.61.928-3.976.591-1.162 1.38-2.108 2.221-2.764.842-.659 1.73-1.019 2.507-1.058.408-.02.785.041 1.133.19l.244-.573-.578-.231-1.66 4.153-1.07 2.68a.622.622 0 0 0 .832.799l-.253-.569z" fill="#54596E"/><path d="M4.505 16.724c-.02.021-.262.272-.509.673-.24.4-.51.955-.48 1.63.017.353.134.734.378 1.07.367.507.971.894 1.847 1.169.88.275 2.053.448 3.647.488a.623.623 0 0 0 .03-1.244c-2.023-.047-3.253-.337-3.905-.67-.327-.164-.508-.33-.609-.47a.737.737 0 0 1-.145-.408c-.02-.267.12-.63.298-.914.087-.142.178-.262.244-.344l.079-.093.019-.02.003-.004-.157-.149.156.15.001-.001-.157-.149.156.15a.623.623 0 0 0-.896-.864z" fill="#54596E"/><path d="M32.229 12.22l-2.73-6.833c2.132-.907 5.069.799 6.66 3.922 1.639 3.216 1.229 6.708-.915 7.8-2.144 1.092-5.21-.629-6.848-3.844a9.101 9.101 0 0 1-.96-3.183l4.793 2.137z" fill="#FF927D"/><path d="M32.228 12.22l.578-.231-2.73-6.833-.577.23.244.574a2.53 2.53 0 0 1 1.132-.19c.778.04 1.666.4 2.508 1.058.84.656 1.63 1.602 2.221 2.764.697 1.366.992 2.78.928 3.976-.037.723-.205 1.363-.475 1.869-.271.508-.635.881-1.096 1.118a2.49 2.49 0 0 1-1.276.256c-.777-.039-1.668-.4-2.51-1.06-.842-.658-1.633-1.606-2.224-2.768a8.485 8.485 0 0 1-.896-2.965l-.62.064-.253.568 4.793 2.138a.62.62 0 0 0 .831-.8l-.578.231.254-.568-4.793-2.137a.622.622 0 0 0-.872.631 9.713 9.713 0 0 0 1.025 3.403c.67 1.316 1.567 2.402 2.567 3.184.999.78 2.106 1.262 3.211 1.323a3.733 3.733 0 0 0 1.906-.39c.711-.362 1.26-.945 1.63-1.643.372-.7.573-1.515.62-2.388.074-1.446-.275-3.059-1.063-4.607-.67-1.315-1.566-2.4-2.564-3.18-.999-.778-2.104-1.26-3.209-1.32a3.775 3.775 0 0 0-1.685.287.623.623 0 0 0-.334.804 21729.648 21729.648 0 0 1 2.73 6.832l.577-.23.254-.569-.254.568z" fill="#54596E"/><path d="M35.101 17.964l.156-.15-.157.149.001.001.156-.15-.157.149c.005.005.194.208.36.488.172.28.301.629.282.887a.738.738 0 0 1-.145.407c-.148.21-.49.484-1.21.71-.715.225-1.786.394-3.304.43a.623.623 0 0 0 .03 1.245c2.126-.055 3.504-.338 4.434-.801.464-.233.818-.52 1.06-.857.244-.335.362-.716.378-1.069.03-.675-.238-1.23-.48-1.63-.246-.4-.488-.651-.508-.673a.623.623 0 0 0-.896.864zM12.922 29.9a8.863 8.863 0 0 0 7.182 3.66 8.862 8.862 0 0 0 7.157-3.626.622.622 0 0 0-1.003-.736 7.617 7.617 0 0 1-6.154 3.118 7.618 7.618 0 0 1-6.175-3.148.623.623 0 0 0-1.007.732z" fill="#54596E"/></g><defs><clipPath id="clip0"><path fill="#fff" d="M0 0h40v40H0z"/></clipPath></defs></svg>
